svg/content_save_alert_outline.svg

<svg xmlns="http://www.w3.org/2000/svg" viewBox="0 0 24 24"><path d="M15 3H3c-1.1 0-2 .9-2 2v14c0 1.1.9 2 2 2h14c1.1 0 2-.9 2-2V7zm2 16H3V5h11.2L17 7.8zm-7-7c-1.7 0-3 1.3-3 3s1.3 3 3 3 3-1.3 3-3-1.3-3-3-3M4 6h9v4H4zm19 8h-2V7h2zm0 4h-2v-2h2z"/></svg>

<?xml version="1.0" encoding="UTF-8"?><!DOCTYPE svg PUBLIC "-//W3C//DTD SVG 1.1//EN" "http://www.w3.org/Graphics/SVG/1.1/DTD/svg11.dtd"><svg xmlns="http://www.w3.org/2000/svg" xmlns:xlink="http://www.w3.org/1999/xlink" version="1.1" id="mdi-content-save-alert-outline" width="24" height="24" viewBox="0 0 24 24"><path d="M15 3H3C1.9 3 1 3.9 1 5V19C1 20.1 1.9 21 3 21H17C18.1 21 19 20.1 19 19V7L15 3M17 19H3V5H14.2L17 7.8V19M10 12C8.3 12 7 13.3 7 15S8.3 18 10 18 13 16.7 13 15 11.7 12 10 12M4 6H13V10H4V6M23 14H21V7H23V14M23 18H21V16H23V18Z" /></svg>
